X: 1
T: Goodbye and Joy Be With Ye
S: from Chris Duncan
Z: arr. T. Traub 10-31-2002
M: 4/4
L: 1/8
R: reel
K: C
|: G2 |\
"C"c2 c2 G3 c | "F"A2 A2 a2 gf | "C"egag "Am"egag | "Dm"e2 d2 "G"d2 ed |\
"C"c2 c2 G3 c | "F"A2 A2 a2 gf | "C"egag "G"egag | "C"e2 c2 c2 :|
|: e2 |\
"Dm"dcde "G"d2 cA | "C"GAcd e2 dc | "Dm"dcde fefg | "G7"a2 d2 d3 e |\
"F"fefg "G"a2 gf | "C"edef "A7"g2 fe | "Dm"defa "G"gede | "Am"c2 A2 A2 :|
